src/assets/images/icons/settings-5-line.svg

<svg width="24" height="24" viewBox="0 0 24 24" fill="none" xmlns="http://www.w3.org/2000/svg">
<g clip-path="url(#clip0_58_16664)">
<path d="M2.21301 14.06C1.92542 12.7017 1.92542 11.2983 2.21301 9.94001C3.32301 10.07 4.29301 9.70301 4.60901 8.93901C4.92601 8.17401 4.50101 7.22901 3.62301 6.53601C4.38005 5.37233 5.37233 4.38005 6.53601 3.62301C7.22801 4.50001 8.17401 4.92601 8.93901 4.60901C9.70401 4.29201 10.071 3.32301 9.94001 2.21301C11.2983 1.92542 12.7017 1.92542 14.06 2.21301C13.93 3.32301 14.297 4.29301 15.061 4.60901C15.826 4.92601 16.771 4.50101 17.464 3.62301C18.6277 4.38005 19.62 5.37233 20.377 6.53601C19.5 7.22801 19.074 8.17401 19.391 8.93901C19.708 9.70401 20.677 10.071 21.787 9.94001C22.0746 11.2983 22.0746 12.7017 21.787 14.06C20.677 13.93 19.707 14.297 19.391 15.061C19.074 15.826 19.499 16.771 20.377 17.464C19.62 18.6277 18.6277 19.62 17.464 20.377C16.772 19.5 15.826 19.074 15.061 19.391C14.296 19.708 13.929 20.677 14.06 21.787C12.7017 22.0746 11.2983 22.0746 9.94001 21.787C10.07 20.677 9.70301 19.707 8.93901 19.391C8.17401 19.074 7.22901 19.499 6.53601 20.377C5.37233 19.62 4.38005 18.6277 3.62301 17.464C4.50001 16.772 4.92601 15.826 4.60901 15.061C4.29201 14.296 3.32301 13.929 2.21301 14.06ZM4.00001 12.21C5.10001 12.515 6.00701 13.212 6.45701 14.296C6.90601 15.381 6.75701 16.516 6.19501 17.508C6.29101 17.61 6.39001 17.709 6.49201 17.805C7.48501 17.243 8.61901 17.095 9.70401 17.543C10.788 17.993 11.485 18.9 11.79 20C11.93 20.004 12.07 20.004 12.21 20C12.515 18.9 13.212 17.993 14.296 17.543C15.381 17.094 16.516 17.243 17.508 17.805C17.61 17.709 17.709 17.61 17.805 17.508C17.243 16.515 17.095 15.381 17.543 14.296C17.993 13.212 18.9 12.515 20 12.21C20.004 12.07 20.004 11.93 20 11.79C18.9 11.485 17.993 10.788 17.543 9.70401C17.094 8.61901 17.243 7.48401 17.805 6.49201C17.7086 6.3904 17.6096 6.29137 17.508 6.19501C16.515 6.75701 15.381 6.90501 14.296 6.45701C13.212 6.00701 12.515 5.10001 12.21 4.00001C12.07 3.9963 11.93 3.9963 11.79 4.00001C11.485 5.10001 10.788 6.00701 9.70401 6.45701C8.61901 6.90601 7.48401 6.75701 6.49201 6.19501C6.39001 6.29101 6.29101 6.39001 6.19501 6.49201C6.75701 7.48501 6.90501 8.61901 6.45701 9.70401C6.00701 10.788 5.10001 11.485 4.00001 11.79C3.99601 11.93 3.99601 12.07 4.00001 12.21ZM12 15C11.2044 15 10.4413 14.6839 9.87869 14.1213C9.31608 13.5587 9.00001 12.7957 9.00001 12C9.00001 11.2044 9.31608 10.4413 9.87869 9.87869C10.4413 9.31608 11.2044 9.00001 12 9.00001C12.7957 9.00001 13.5587 9.31608 14.1213 9.87869C14.6839 10.4413 15 11.2044 15 12C15 12.7957 14.6839 13.5587 14.1213 14.1213C13.5587 14.6839 12.7957 15 12 15ZM12 13C12.2652 13 12.5196 12.8946 12.7071 12.7071C12.8946 12.5196 13 12.2652 13 12C13 11.7348 12.8946 11.4804 12.7071 11.2929C12.5196 11.1054 12.2652 11 12 11C11.7348 11 11.4804 11.1054 11.2929 11.2929C11.1054 11.4804 11 11.7348 11 12C11 12.2652 11.1054 12.5196 11.2929 12.7071C11.4804 12.8946 11.7348 13 12 13Z" fill="#181D27"/>
</g>
<defs>
<clipPath id="clip0_58_16664">
<rect width="24" height="24" fill="white"/>
</clipPath>
</defs>
</svg>

<svg xmlns="http://www.w3.org/2000/svg" width="24" height="24" fill="none" viewBox="0 0 24 24"><g clip-path="url(#a)"><path fill="#181d27" d="M2.213 14.06a9.95 9.95 0 0 1 0-4.12c1.11.13 2.08-.237 2.396-1.001.317-.765-.108-1.71-.986-2.403a9.95 9.95 0 0 1 2.913-2.913c.692.877 1.638 1.303 2.403.986s1.132-1.286 1.001-2.396a9.95 9.95 0 0 1 4.12 0c-.13 1.11.237 2.08 1.001 2.396.765.317 1.71-.108 2.403-.986a9.9 9.9 0 0 1 2.913 2.913c-.877.692-1.303 1.638-.986 2.403s1.286 1.132 2.396 1.001a9.95 9.95 0 0 1 0 4.12c-1.11-.13-2.08.237-2.396 1.001-.317.765.108 1.71.986 2.403a9.9 9.9 0 0 1-2.913 2.913c-.692-.877-1.638-1.303-2.403-.986s-1.132 1.286-1.001 2.396a9.95 9.95 0 0 1-4.12 0c.13-1.11-.237-2.08-1.001-2.396-.765-.317-1.71.108-2.403.986a9.9 9.9 0 0 1-2.913-2.913c.877-.692 1.303-1.638.986-2.403s-1.286-1.132-2.396-1.001M4 12.21c1.1.305 2.007 1.002 2.457 2.086.449 1.085.3 2.22-.262 3.212q.144.153.297.297c.993-.562 2.127-.71 3.212-.262 1.084.45 1.781 1.357 2.086 2.457q.21.006.42 0c.305-1.1 1.002-2.007 2.086-2.457 1.085-.449 2.22-.3 3.212.262q.153-.144.297-.297c-.562-.993-.71-2.127-.262-3.212.45-1.084 1.357-1.781 2.457-2.086q.006-.21 0-.42c-1.1-.305-2.007-1.002-2.457-2.086-.449-1.085-.3-2.22.262-3.212a8 8 0 0 0-.297-.297c-.993.562-2.127.71-3.212.262C13.212 6.007 12.515 5.1 12.21 4a8 8 0 0 0-.42 0c-.305 1.1-1.002 2.007-2.086 2.457-1.085.449-2.22.3-3.212-.262a7 7 0 0 0-.297.297c.562.993.71 2.127.262 3.212C6.007 10.788 5.1 11.485 4 11.79q-.006.21 0 .42M12 15a3 3 0 1 1 0-6 3 3 0 0 1 0 6m0-2a1 1 0 1 0 0-2 1 1 0 0 0 0 2"/></g><defs><clipPath id="a"><path fill="#fff" d="M0 0h24v24H0z"/></clipPath></defs></svg>
